images/3825.svg

<?xml version="1.0" encoding="UTF-8"?>
<svg xmlns="http://www.w3.org/2000/svg" xmlns:xlink="http://www.w3.org/1999/xlink" width="300pt" height="300pt" viewBox="0 0 300 300" version="1.1">
<defs>
<g>
<symbol overflow="visible" id="glyph0-0">
<path style="stroke:none;" d="M 0.796875 2.828125 L 0.796875 -11.28125 L 8.796875 -11.28125 L 8.796875 2.828125 Z M 1.703125 1.9375 L 7.90625 1.9375 L 7.90625 -10.390625 L 1.703125 -10.390625 Z M 1.703125 1.9375 "/>
</symbol>
<symbol overflow="visible" id="glyph0-1">
<path style="stroke:none;" d="M 6.3125 -10.59375 C 5.164062 -10.59375 4.253906 -10.164062 3.578125 -9.3125 C 2.898438 -8.457031 2.5625 -7.296875 2.5625 -5.828125 C 2.5625 -4.359375 2.898438 -3.195312 3.578125 -2.34375 C 4.253906 -1.488281 5.164062 -1.0625 6.3125 -1.0625 C 7.457031 -1.0625 8.363281 -1.488281 9.03125 -2.34375 C 9.695312 -3.195312 10.03125 -4.359375 10.03125 -5.828125 C 10.03125 -7.296875 9.695312 -8.457031 9.03125 -9.3125 C 8.363281 -10.164062 7.457031 -10.59375 6.3125 -10.59375 Z M 6.3125 -11.875 C 7.945312 -11.875 9.253906 -11.328125 10.234375 -10.234375 C 11.210938 -9.140625 11.703125 -7.671875 11.703125 -5.828125 C 11.703125 -3.984375 11.210938 -2.507812 10.234375 -1.40625 C 9.253906 -0.3125 7.945312 0.234375 6.3125 0.234375 C 4.664062 0.234375 3.351562 -0.3125 2.375 -1.40625 C 1.394531 -2.507812 0.90625 -3.984375 0.90625 -5.828125 C 0.90625 -7.671875 1.394531 -9.140625 2.375 -10.234375 C 3.351562 -11.328125 4.664062 -11.875 6.3125 -11.875 Z M 6.3125 -11.875 "/>
</symbol>
<symbol overflow="visible" id="glyph0-2">
<path style="stroke:none;" d="M 1.578125 -11.671875 L 3.15625 -11.671875 L 3.15625 -6.890625 L 8.890625 -6.890625 L 8.890625 -11.671875 L 10.46875 -11.671875 L 10.46875 0 L 8.890625 0 L 8.890625 -5.5625 L 3.15625 -5.5625 L 3.15625 0 L 1.578125 0 Z M 1.578125 -11.671875 "/>
</symbol>
</g>
</defs>
<g id="surface43341">
<rect x="0" y="0" width="300" height="300" style="fill:rgb(100%,100%,100%);fill-opacity:1;stroke:none;"/>
<path style="fill:none;stroke-width:1.2;stroke-linecap:butt;stroke-linejoin:miter;stroke:rgb(0%,0%,0%);stroke-opacity:1;stroke-miterlimit:10;" d="M 35.292969 165.273438 L 73.527344 166.300781 "/>
<path style="fill:none;stroke-width:1.2;stroke-linecap:butt;stroke-linejoin:miter;stroke:rgb(0%,0%,0%);stroke-opacity:1;stroke-miterlimit:10;" d="M 73.527344 166.300781 L 93.535156 133.699219 "/>
<path style="fill:none;stroke-width:1.2;stroke-linecap:butt;stroke-linejoin:miter;stroke:rgb(0%,0%,0%);stroke-opacity:1;stroke-miterlimit:10;" d="M 73.527344 166.300781 L 91.757812 199.925781 "/>
<path style="fill:none;stroke-width:1.2;stroke-linecap:butt;stroke-linejoin:miter;stroke:rgb(0%,0%,0%);stroke-opacity:1;stroke-miterlimit:10;" d="M 93.535156 133.699219 L 75.304688 100.074219 "/>
<path style="fill:none;stroke-width:1.2;stroke-linecap:butt;stroke-linejoin:miter;stroke:rgb(0%,0%,0%);stroke-opacity:1;stroke-miterlimit:10;" d="M 99.625 126.046875 L 85.039062 99.148438 "/>
<path style="fill:none;stroke-width:1.2;stroke-linecap:butt;stroke-linejoin:miter;stroke:rgb(0%,0%,0%);stroke-opacity:1;stroke-miterlimit:10;" d="M 131.769531 134.726562 L 93.535156 133.699219 "/>
<path style="fill:none;stroke-width:1.2;stroke-linecap:butt;stroke-linejoin:miter;stroke:rgb(0%,0%,0%);stroke-opacity:1;stroke-miterlimit:10;" d="M 75.304688 100.074219 L 95.3125 67.472656 "/>
<path style="fill:none;stroke-width:1.2;stroke-linecap:butt;stroke-linejoin:miter;stroke:rgb(0%,0%,0%);stroke-opacity:1;stroke-miterlimit:10;" d="M 95.3125 67.472656 L 133.546875 68.5 "/>
<path style="fill:none;stroke-width:1.2;stroke-linecap:butt;stroke-linejoin:miter;stroke:rgb(0%,0%,0%);stroke-opacity:1;stroke-miterlimit:10;" d="M 98.894531 76.570312 L 129.484375 77.394531 "/>
<path style="fill:none;stroke-width:1.2;stroke-linecap:butt;stroke-linejoin:miter;stroke:rgb(0%,0%,0%);stroke-opacity:1;stroke-miterlimit:10;" d="M 133.546875 68.5 L 151.777344 102.125 "/>
<path style="fill:none;stroke-width:1.2;stroke-linecap:butt;stroke-linejoin:miter;stroke:rgb(0%,0%,0%);stroke-opacity:1;stroke-miterlimit:10;" d="M 151.777344 102.125 L 131.769531 134.726562 "/>
<path style="fill:none;stroke-width:1.2;stroke-linecap:butt;stroke-linejoin:miter;stroke:rgb(0%,0%,0%);stroke-opacity:1;stroke-miterlimit:10;" d="M 142.105469 100.679688 L 126.101562 126.757812 "/>
<path style="fill:none;stroke-width:1.2;stroke-linecap:butt;stroke-linejoin:miter;stroke:rgb(0%,0%,0%);stroke-opacity:1;stroke-miterlimit:10;" d="M 151.777344 102.125 L 190.011719 103.152344 "/>
<path style="fill:none;stroke-width:1.2;stroke-linecap:butt;stroke-linejoin:miter;stroke:rgb(0%,0%,0%);stroke-opacity:1;stroke-miterlimit:10;" d="M 193.847656 105.503906 L 203.851562 89.203125 "/>
<path style="fill:none;stroke-width:1.2;stroke-linecap:butt;stroke-linejoin:miter;stroke:rgb(100%,0%,0%);stroke-opacity:1;stroke-miterlimit:10;" d="M 203.851562 89.203125 L 213.855469 72.90625 "/>
<path style="fill:none;stroke-width:1.2;stroke-linecap:butt;stroke-linejoin:miter;stroke:rgb(0%,0%,0%);stroke-opacity:1;stroke-miterlimit:10;" d="M 186.179688 100.796875 L 196.179688 84.496094 "/>
<path style="fill:none;stroke-width:1.2;stroke-linecap:butt;stroke-linejoin:miter;stroke:rgb(100%,0%,0%);stroke-opacity:1;stroke-miterlimit:10;" d="M 196.179688 84.496094 L 206.183594 68.195312 "/>
<path style="fill:none;stroke-width:1.2;stroke-linecap:butt;stroke-linejoin:miter;stroke:rgb(0%,0%,0%);stroke-opacity:1;stroke-miterlimit:10;" d="M 190.011719 103.152344 L 208.242188 136.777344 "/>
<path style=" stroke:none;fill-rule:nonzero;fill:rgb(100%,100%,100%);fill-opacity:1;" d="M 204.019531 61.050781 L 217.019531 61.050781 L 217.019531 80.050781 L 204.019531 80.050781 Z M 204.019531 61.050781 "/>
<g style="fill:rgb(100%,0%,0%);fill-opacity:1;">
  <use xlink:href="#glyph0-1" x="204.019531" y="75.902344"/>
</g>
<path style="fill:none;stroke-width:1.2;stroke-linecap:butt;stroke-linejoin:miter;stroke:rgb(0%,0%,0%);stroke-opacity:1;stroke-miterlimit:10;" d="M 208.242188 136.777344 L 188.234375 169.378906 "/>
<path style="fill:none;stroke-width:1.2;stroke-linecap:butt;stroke-linejoin:miter;stroke:rgb(0%,0%,0%);stroke-opacity:1;stroke-miterlimit:10;" d="M 213.914062 144.746094 L 197.90625 170.824219 "/>
<path style="fill:none;stroke-width:1.2;stroke-linecap:butt;stroke-linejoin:miter;stroke:rgb(0%,0%,0%);stroke-opacity:1;stroke-miterlimit:10;" d="M 246.480469 137.804688 L 208.242188 136.777344 "/>
<path style="fill:none;stroke-width:1.2;stroke-linecap:butt;stroke-linejoin:miter;stroke:rgb(0%,0%,0%);stroke-opacity:1;stroke-miterlimit:10;" d="M 188.234375 169.378906 L 206.464844 203.003906 "/>
<path style="fill:none;stroke-width:1.2;stroke-linecap:butt;stroke-linejoin:miter;stroke:rgb(0%,0%,0%);stroke-opacity:1;stroke-miterlimit:10;" d="M 206.464844 203.003906 L 244.703125 204.03125 "/>
<path style="fill:none;stroke-width:1.2;stroke-linecap:butt;stroke-linejoin:miter;stroke:rgb(0%,0%,0%);stroke-opacity:1;stroke-miterlimit:10;" d="M 210.53125 194.109375 L 241.121094 194.929688 "/>
<path style="fill:none;stroke-width:1.2;stroke-linecap:butt;stroke-linejoin:miter;stroke:rgb(0%,0%,0%);stroke-opacity:1;stroke-miterlimit:10;" d="M 244.703125 204.03125 L 264.707031 171.429688 "/>
<path style="fill:none;stroke-width:1.2;stroke-linecap:butt;stroke-linejoin:miter;stroke:rgb(0%,0%,0%);stroke-opacity:1;stroke-miterlimit:10;" d="M 264.707031 171.429688 L 246.480469 137.804688 "/>
<path style="fill:none;stroke-width:1.2;stroke-linecap:butt;stroke-linejoin:miter;stroke:rgb(0%,0%,0%);stroke-opacity:1;stroke-miterlimit:10;" d="M 254.972656 172.355469 L 240.390625 145.457031 "/>
<path style="fill:none;stroke-width:1.2;stroke-linecap:butt;stroke-linejoin:miter;stroke:rgb(0%,0%,0%);stroke-opacity:1;stroke-miterlimit:10;" d="M 91.636719 204.425781 L 110.753906 204.9375 "/>
<path style="fill:none;stroke-width:1.2;stroke-linecap:butt;stroke-linejoin:miter;stroke:rgb(100%,0%,0%);stroke-opacity:1;stroke-miterlimit:10;" d="M 110.753906 204.9375 L 129.871094 205.453125 "/>
<path style="fill:none;stroke-width:1.2;stroke-linecap:butt;stroke-linejoin:miter;stroke:rgb(0%,0%,0%);stroke-opacity:1;stroke-miterlimit:10;" d="M 91.878906 195.429688 L 110.996094 195.941406 "/>
<path style="fill:none;stroke-width:1.2;stroke-linecap:butt;stroke-linejoin:miter;stroke:rgb(100%,0%,0%);stroke-opacity:1;stroke-miterlimit:10;" d="M 110.996094 195.941406 L 130.113281 196.453125 "/>
<path style="fill:none;stroke-width:1.2;stroke-linecap:butt;stroke-linejoin:miter;stroke:rgb(0%,0%,0%);stroke-opacity:1;stroke-miterlimit:10;" d="M 91.757812 199.925781 L 81.753906 216.226562 "/>
<path style="fill:none;stroke-width:1.2;stroke-linecap:butt;stroke-linejoin:miter;stroke:rgb(100%,0%,0%);stroke-opacity:1;stroke-miterlimit:10;" d="M 81.753906 216.226562 L 71.75 232.527344 "/>
<path style=" stroke:none;fill-rule:nonzero;fill:rgb(100%,100%,100%);fill-opacity:1;" d="M 123.992188 191.453125 L 136.992188 191.453125 L 136.992188 210.453125 L 123.992188 210.453125 Z M 123.992188 191.453125 "/>
<g style="fill:rgb(100%,0%,0%);fill-opacity:1;">
  <use xlink:href="#glyph0-1" x="123.992188" y="206.304688"/>
</g>
<path style=" stroke:none;fill-rule:nonzero;fill:rgb(100%,100%,100%);fill-opacity:1;" d="M 46.75 223.027344 L 71.75 223.027344 L 71.75 242.027344 L 46.75 242.027344 Z M 46.75 223.027344 "/>
<g style="fill:rgb(100%,0%,0%);fill-opacity:1;">
  <use xlink:href="#glyph0-2" x="46.75" y="237.878906"/>
  <use xlink:href="#glyph0-1" x="58.78125" y="237.878906"/>
</g>
</g>
</svg>

<svg xmlns="http://www.w3.org/2000/svg" xmlns:xlink="http://www.w3.org/1999/xlink" width="300pt" height="300pt" viewBox="0 0 300 300"><defs><symbol overflow="visible"><path d="M.797 2.828v-14.11h8V2.83zm.906-.89h6.203v-12.33H1.703zm0 0"/></symbol><symbol overflow="visible" id="a"><path d="M6.313-10.594c-1.15 0-2.06.43-2.735 1.28-.68.857-1.015 2.017-1.015 3.486 0 1.47.335 2.633 1.015 3.484.676.856 1.586 1.28 2.735 1.28 1.144.002 2.05-.424 2.718-1.28.665-.85 1-2.015 1-3.484 0-1.47-.335-2.63-1-3.484-.667-.852-1.573-1.282-2.717-1.282zm0-1.28c1.632 0 2.94.546 3.92 1.64.978 1.093 1.47 2.562 1.47 4.406 0 1.844-.492 3.32-1.47 4.422-.98 1.093-2.288 1.64-3.92 1.64-1.65 0-2.96-.546-3.938-1.64-.98-1.102-1.47-2.578-1.47-4.422 0-1.844.49-3.313 1.47-4.406.977-1.094 2.29-1.64 3.938-1.64zm0 0"/></symbol><symbol overflow="visible" id="b"><path d="M1.578-11.672h1.578v4.78H8.89v-4.78h1.58V0H8.89v-5.563H3.157V0H1.578zm0 0"/></symbol></defs><g><path fill="#fff" d="M0 0h300v300H0z"/><path d="M35.293 165.273l38.234 1.028M73.527 166.3l20.008-32.6M73.527 166.3l18.23 33.626M93.535 133.7l-18.23-33.626M99.625 126.047l-14.586-26.9M131.77 134.727L93.535 133.7M75.305 100.074l20.007-32.6M95.313 67.473l38.234 1.027M98.895 76.57l30.59.825M133.547 68.5l18.23 33.625M151.777 102.125l-20.007 32.602M142.105 100.68l-16.003 26.078M151.777 102.125l38.235 1.027M193.848 105.504l10.004-16.3" stroke-width="1.2" stroke="#000" stroke-miterlimit="10" fill="none"/><path d="M203.852 89.203l10.003-16.297" stroke-width="1.2" stroke="#f00" stroke-miterlimit="10" fill="none"/><path d="M186.18 100.797l10-16.3" stroke-width="1.2" stroke="#000" stroke-miterlimit="10" fill="none"/><path d="M196.18 84.496l10.004-16.3" stroke-width="1.2" stroke="#f00" stroke-miterlimit="10" fill="none"/><path d="M190.012 103.152l18.23 33.625" stroke-width="1.2" stroke="#000" stroke-miterlimit="10" fill="none"/><path d="M204.02 61.05h13v19h-13zm0 0" fill="#fff"/><use xlink:href="#a" x="204.02" y="75.902" fill="#f00"/><path d="M208.242 136.777l-20.008 32.602M213.914 144.746l-16.008 26.078M246.48 137.805l-38.238-1.028M188.234 169.38l18.23 33.624M206.465 203.004l38.238 1.027M210.53 194.11l30.59.82M244.703 204.03l20.004-32.6M264.707 171.43l-18.227-33.625M254.973 172.355l-14.582-26.898M91.637 204.426l19.117.512" stroke-width="1.2" stroke="#000" stroke-miterlimit="10" fill="none"/><path d="M110.754 204.938l19.117.515" stroke-width="1.2" stroke="#f00" stroke-miterlimit="10" fill="none"/><path d="M91.88 195.43l19.116.51" stroke-width="1.2" stroke="#000" stroke-miterlimit="10" fill="none"/><path d="M110.996 195.94l19.117.513" stroke-width="1.2" stroke="#f00" stroke-miterlimit="10" fill="none"/><path d="M91.758 199.926l-10.004 16.3" stroke-width="1.2" stroke="#000" stroke-miterlimit="10" fill="none"/><path d="M81.754 216.227l-10.004 16.3" stroke-width="1.2" stroke="#f00" stroke-miterlimit="10" fill="none"/><path d="M123.992 191.453h13v19h-13zm0 0" fill="#fff"/><use xlink:href="#a" x="123.992" y="206.305" fill="#f00"/><path d="M46.75 223.027h25v19h-25zm0 0" fill="#fff"/><g fill="#f00"><use xlink:href="#b" x="46.75" y="237.879"/><use xlink:href="#a" x="58.781" y="237.879"/></g></g></svg>
